X:79
T: WAS FANG ICH ARMER TEUFEL AN
N: B0566
O: Europa, Mitteleuropa, Deutschland
R: Studenten -, Burschenschafts -, Wander - Lied
M: 3/4
L: 1/16
K: F
F2 | F2A2c6A2 | A3GG6
G2 | G2d2c6B2 | B4A4z2
F2 | F2A2c6A2 | A3GG6
G2 | G2d2c6B2 | B4A4z2
c2 | c3cf2c2A2F2 | c3cc6
c2 | c3cf2c2A2F2 | c3cc6
c2 | c6A2d6c2 | c4B4z6
B2 | B6G2c6E2 | G4F4z6

@@@ Tune index: 2297
